X:18
T:The Lass of Patie's Mill
N:page 15 on manuscript
M:C
L:1/8
K:F
c2 | {B}A2 GF AB c2 | (f3 g a2) c2 | (defe) (dcBA) | {A}G4 z2 c>B | {B}A2 GF AB c2 | (e3 f g2) c2 | (def)d (efga) | (f3 g f2 :|
a2 | (bagf) (fedc) | f3 g {fg}a2 c2 | (def)e (dcBA) | (c3 A) G2 a>b | (c'a)(bg) (afd)b | {a}g4 z2 BA | B2 cd c2 (fe) | (f3 g) f2 :|

